X:2
T:morceau avec rmi
N:
M:2/4
L:1/8
Q:1/4=120
K:C
V:1
%%MIDI transpose -12
%%MIDI program 6 %harpsi
%%MIDI channel 1
|: B, ^F d F | B, ^F d F | B, ^F d F | _B, F _e _B | _B, F _e _B | _B, F _e _B :|
|: B, ^F d F | B, ^F d F | B, ^F d F | G, D B _B |  G, D B _B |  G, D _B d :|
%%V:2
%%|: B2 F e/d/ | D2 A g/f/ | F2 A e/d/ | _E2 E2 |
